build/svg/cmd/sc_setoptimalrowheight.svg

<?xml version="1.0" encoding="UTF-8" standalone="no"?>
<svg
   xmlns:dc="http://purl.org/dc/elements/1.1/"
   xmlns:cc="http://creativecommons.org/ns#"
   xmlns:rdf="http://www.w3.org/1999/02/22-rdf-syntax-ns#"
   xmlns:svg="http://www.w3.org/2000/svg"
   xmlns="http://www.w3.org/2000/svg"
   xmlns:sodipodi="http://sodipodi.sourceforge.net/DTD/sodipodi-0.dtd"
   xmlns:inkscape="http://www.inkscape.org/namespaces/inkscape"
   viewBox="0 0 16 16"
   version="1.1"
   id="svg4"
   sodipodi:docname="sc_setoptimalrowheight.svg"
   inkscape:export-filename="/home/jupiter007/Libreoffice yaru theme fullcolor/build/cmd/sc_setoptimalrowheight.png"
   inkscape:export-xdpi="96"
   inkscape:export-ydpi="96"
   inkscape:version="0.92.5 (2060ec1f9f, 2020-04-08)"><metadata
   id="metadata10">
  <rdf:RDF>
    <cc:Work
       rdf:about="">
      <dc:format>image/svg+xml</dc:format>
      <dc:type
         rdf:resource="http://purl.org/dc/dcmitype/StillImage" />
    </cc:Work>
  </rdf:RDF>
</metadata>
<defs
   id="defs8" />
<sodipodi:namedview
   pagecolor="#ffffff"
   bordercolor="#666666"
   borderopacity="1"
   objecttolerance="10"
   gridtolerance="10"
   guidetolerance="10"
   inkscape:pageopacity="0"
   inkscape:pageshadow="2"
   inkscape:window-width="1920"
   inkscape:window-height="1011"
   id="namedview6"
   showgrid="true"
   inkscape:zoom="20.85965"
   inkscape:cx="5.2361839"
   inkscape:cy="4.7037102"
   inkscape:window-x="0"
   inkscape:window-y="32"
   inkscape:window-maximized="1"
   inkscape:current-layer="svg4">
  <inkscape:grid
     type="xygrid"
     id="grid841" />
</sodipodi:namedview>
/&gt;<path
   sodipodi:nodetypes="cccccccc"
   style="opacity:0.6;fill:#000000;fill-opacity:1;stroke:#000000;stroke-width:2;stroke-linecap:butt;stroke-linejoin:round;stroke-miterlimit:4;stroke-dasharray:none;stroke-opacity:1"
   d="M 8.0000001,0.99995859 4.9999998,3.99996 h 2.0000003 v 2 h 2 v -2 H 11 Z"
   id="path843"
   inkscape:connector-curvature="0" />
<path
   sodipodi:nodetypes="cccccccc"
   id="path845"
   d="M 8.0000001,0.99995859 4.9999998,3.99996 h 2.0000003 v 2 h 2 v -2 H 11 Z"
   style="fill:#aee3f8;fill-opacity:1;stroke:none;stroke-width:1px;stroke-linecap:butt;stroke-linejoin:miter;stroke-opacity:1"
   inkscape:connector-curvature="0" />
<path
   inkscape:connector-curvature="0"
   id="path856"
   d="M 8.0000001,15.000041 4.9999998,12.00004 h 2.0000003 v -2 h 2 v 2 H 11 Z"
   style="opacity:0.6;fill:#000000;fill-opacity:1;stroke:#000000;stroke-width:2;stroke-linecap:butt;stroke-linejoin:round;stroke-miterlimit:4;stroke-dasharray:none;stroke-opacity:1"
   sodipodi:nodetypes="cccccccc" />
<path
   inkscape:connector-curvature="0"
   style="fill:#aee3f8;fill-opacity:1;stroke:none;stroke-width:1px;stroke-linecap:butt;stroke-linejoin:miter;stroke-opacity:1"
   d="M 8.0000001,15.000041 4.9999998,12.00004 h 2.0000003 v -2 h 2 v 2 H 11 Z"
   id="path834-1"
   sodipodi:nodetypes="cccccccc" />
<rect
   style="opacity:1;fill:#ffffff;fill-opacity:1;stroke:none;stroke-width:2;stroke-linejoin:round;stroke-miterlimit:4;stroke-dasharray:none"
   id="rect819"
   width="10"
   height="2"
   x="3.0000002"
   y="7.0000401" />
<path
   inkscape:connector-curvature="0"
   d="m 1.9999998,6.0000403 v 1 2.9999997 H 7.0000001 9.0000002 14 v -2.9999997 -1 H 9.0000002 7.0000001 Z m 1,1 h 3 V 9.00004 H 2.9999999 Z m 4.0000003,0 H 9.0000002 V 9.00004 H 7.0000001 Z m 2.9999999,0 h 3 V 9.00004 h -3 z"
   id="path2-3"
   style="fill:#6d6d6d;fill-opacity:1" />
</svg>

<svg xmlns="http://www.w3.org/2000/svg" viewBox="0 0 16 16">/&gt;<path d="M8 1L5 4h2v2h2V4h2z" opacity=".6" stroke="#000" stroke-width="2" stroke-linejoin="round"/><path d="M8 1L5 4h2v2h2V4h2z" fill="#aee3f8"/><path d="M8 15l-3-3h2v-2h2v2h2z" opacity=".6" stroke="#000" stroke-width="2" stroke-linejoin="round"/><path d="M8 15l-3-3h2v-2h2v2h2z" fill="#aee3f8"/><path fill="#fff" d="M3 7h10v2H3z"/><path d="M2 6v4h12V6H7zm1 1h3v2H3zm4 0h2v2H7zm3 0h3v2h-3z" fill="#6d6d6d"/></svg>
